build/img/logo.svg

<svg width="232" height="48" viewBox="0 0 232 48" fill="none" xmlns="http://www.w3.org/2000/svg">
<path d="M73.0714 23.5154C74.0767 23.6127 74.8985 24.0178 75.5368 24.7309C76.191 25.4278 76.5181 26.3515 76.5181 27.5022C76.5181 28.9607 76.0394 30.1114 75.082 30.9541C74.1246 31.7968 72.8161 32.2182 71.1566 32.2182H64V15.2016H70.8933C72.5528 15.2016 73.8613 15.5987 74.8187 16.3928C75.7921 17.1707 76.2788 18.2484 76.2788 19.6259C76.2788 20.7118 75.9915 21.5869 75.4171 22.2513C74.8426 22.8996 74.0608 23.321 73.0714 23.5154ZM70.0317 18.0458H67.8775V22.1784H70.0317C70.7657 22.1784 71.3401 22.0002 71.755 21.6436C72.1858 21.2709 72.4013 20.7604 72.4013 20.1121C72.4013 19.4639 72.1938 18.9615 71.7789 18.6049C71.3641 18.2322 70.7816 18.0458 70.0317 18.0458ZM70.295 29.2281C71.013 29.2281 71.5795 29.0337 71.9944 28.6447C72.4092 28.2396 72.6167 27.6885 72.6167 26.9917C72.6167 26.3596 72.4013 25.8572 71.9704 25.4845C71.5555 25.0955 70.9971 24.9011 70.295 24.9011H67.8775V29.2281H70.295Z" fill="#151515"/>
<path d="M84.1289 32.5828C82.246 32.5828 80.7461 32.0156 79.6291 30.8812C78.5121 29.7305 77.9537 28.2234 77.9537 26.3596C77.9537 24.4959 78.5121 22.9968 79.6291 21.8624C80.7461 20.728 82.246 20.1607 84.1289 20.1607C85.8363 20.1607 87.2246 20.5902 88.2937 21.4491C89.3628 22.3081 89.9691 23.4749 90.1127 24.9497H86.4506C86.1794 23.8477 85.4135 23.2967 84.1529 23.2967C83.355 23.2967 82.7327 23.5641 82.2859 24.0989C81.8391 24.6337 81.6157 25.3873 81.6157 26.3596C81.6157 27.332 81.8391 28.0856 82.2859 28.6204C82.7327 29.1552 83.355 29.4226 84.1529 29.4226C85.4135 29.4226 86.1794 28.904 86.4506 27.8668H90.1127C89.9691 29.3092 89.3628 30.4598 88.2937 31.3188C87.2246 32.1615 85.8363 32.5828 84.1289 32.5828Z" fill="#151515"/>
<path d="M103.953 25.7519C103.953 26.2381 103.921 26.781 103.857 27.3806H95.3358C95.3678 28.1423 95.6231 28.7339 96.1018 29.1552C96.5805 29.5766 97.2267 29.7873 98.0405 29.7873C99.1575 29.7873 99.8755 29.4226 100.195 28.6933H103.785C103.609 29.844 102.987 30.7839 101.918 31.5132C100.865 32.2263 99.5724 32.5828 98.0405 32.5828C96.0778 32.5828 94.53 32.0318 93.3971 30.9298C92.2642 29.8278 91.6977 28.3044 91.6977 26.3596C91.6977 24.4473 92.2642 22.9401 93.3971 21.8381C94.53 20.7199 96.0379 20.1607 97.9208 20.1607C99.708 20.1607 101.16 20.6793 102.277 21.7165C103.394 22.7537 103.953 24.0989 103.953 25.7519ZM95.3358 25.0712H100.338C100.322 24.2933 100.107 23.6937 99.692 23.2723C99.2772 22.851 98.6788 22.6403 97.8969 22.6403C97.115 22.6403 96.4927 22.8672 96.03 23.321C95.5832 23.7585 95.3518 24.342 95.3358 25.0712Z" fill="#151515"/>
<path d="M106.047 32.2182V20.5011H111.529L114.233 27.9884L116.962 20.5011H122.371V32.2182H118.877V23.6127L115.621 32.2182H112.869L109.542 23.6127V32.2182H106.047Z" fill="#151515"/>
<path d="M138.714 23.6127L145.368 32.2182H140.772L135.195 24.4149V32.2182H131.318V15.2016H135.195V22.2757H135.626C136.153 22.2757 136.591 21.9677 136.942 21.3519L139.408 17.4138C139.934 16.5548 140.461 15.9552 140.988 15.6149C141.514 15.2583 142.16 15.0801 142.926 15.0801H144.53V18.532H143.74C143.198 18.532 142.655 18.9615 142.112 19.8204L140.317 22.7375C140.174 23.013 139.966 23.2318 139.695 23.3939C139.424 23.5397 139.16 23.6127 138.905 23.6127H138.714Z" fill="#151515"/>
<path d="M154.489 20.1851C156.069 20.1851 157.345 20.7523 158.319 21.8867C159.308 23.0211 159.803 24.5121 159.803 26.3596C159.803 28.1909 159.3 29.6819 158.295 30.8326C157.289 31.967 155.989 32.5342 154.393 32.5342C153.564 32.5342 152.822 32.3478 152.167 31.9751C151.513 31.6024 151.034 31.1324 150.731 30.5652V37.0801H147.069V20.5011H150.731V22.1784C151.034 21.595 151.529 21.1169 152.215 20.7442C152.901 20.3714 153.659 20.1851 154.489 20.1851ZM153.34 29.4469C154.138 29.4469 154.792 29.1633 155.303 28.5961C155.813 28.0127 156.069 27.2672 156.069 26.3596C156.069 25.4521 155.813 24.7147 155.303 24.1475C154.792 23.5803 154.138 23.2967 153.34 23.2967C152.51 23.2967 151.84 23.5803 151.33 24.1475C150.819 24.7147 150.564 25.4521 150.564 26.3596C150.564 27.2834 150.819 28.0289 151.33 28.5961C151.856 29.1633 152.526 29.4469 153.34 29.4469Z" fill="#151515"/>
<path d="M173.421 25.7519C173.421 26.2381 173.389 26.781 173.325 27.3806H164.804C164.836 28.1423 165.091 28.7339 165.57 29.1552C166.049 29.5766 166.695 29.7873 167.509 29.7873C168.626 29.7873 169.344 29.4226 169.663 28.6933H173.253C173.078 29.844 172.455 30.7839 171.386 31.5132C170.333 32.2263 169.041 32.5828 167.509 32.5828C165.546 32.5828 163.998 32.0318 162.865 30.9298C161.732 29.8278 161.166 28.3044 161.166 26.3596C161.166 24.4473 161.732 22.9401 162.865 21.8381C163.998 20.7199 165.506 20.1607 167.389 20.1607C169.176 20.1607 170.628 20.6793 171.745 21.7165C172.862 22.7537 173.421 24.0989 173.421 25.7519ZM164.804 25.0712H169.806C169.79 24.2933 169.575 23.6937 169.16 23.2723C168.745 22.851 168.147 22.6403 167.365 22.6403C166.583 22.6403 165.961 22.8672 165.498 23.321C165.051 23.7585 164.82 24.342 164.804 25.0712Z" fill="#151515"/>
<path d="M186.988 28.9364H188.304V35.1353H184.738V32.2182H177.773V35.1353H174.111V28.9364H175.379C176.097 28.5799 176.456 27.7858 176.456 26.5541V20.5011H186.988V28.9364ZM180.023 23.248V26.4569C180.023 27.5589 179.751 28.5151 179.209 29.3254H183.35V23.248H180.023Z" fill="#151515"/>
<path d="M198.396 25.3386L194.184 31.3188V32.2182H190.522V20.5011H194.184V27.5508L198.396 21.5464V20.5011H202.035V32.2182H198.396V25.3386Z" fill="#151515"/>
<path d="M214.347 20.5011V23.7342H211.116V32.2182H207.454V23.7342H204.246V20.5011H214.347Z" fill="#151515"/>
<path d="M216.514 20.5011H220.176V24.1718H222.57C224.101 24.1718 225.258 24.5607 226.04 25.3386C226.838 26.1003 227.237 27.0565 227.237 28.2071C227.237 29.2606 226.822 30.1924 225.992 31.0027C225.178 31.813 224.038 32.2182 222.57 32.2182H216.514V20.5011ZM228.338 32.2182V20.5011H232V32.2182H228.338ZM220.176 26.6513V29.8116H221.899C222.41 29.8116 222.801 29.6657 223.072 29.374C223.359 29.0823 223.503 28.7014 223.503 28.2315C223.503 27.7615 223.359 27.3806 223.072 27.0889C222.801 26.7972 222.418 26.6513 221.923 26.6513H220.176Z" fill="#151515"/>
<path d="M42 30.7555H46.2857C47.2325 30.7555 48 29.9881 48 29.0412V23.8984C48 22.9516 47.2326 22.1841 46.2857 22.1841H42V30.7555Z" fill="#F8C616"/>
<path d="M29.1428 41.0411H16.2857C7.32853 41.0411 0 33.7126 0 24.7554C0 15.7983 7.32853 8.46973 16.2857 8.46973H29.1428C38.1 8.46973 45.4285 15.7983 45.4285 24.7554C45.4285 33.7126 38.1 41.0411 29.1428 41.0411Z" fill="#FFDD2D"/>
<path d="M29.1428 4.22022V11.0413C29.1428 11.9881 29.9103 12.7556 30.8571 12.7556H33.3062C34.3382 12.7556 35.1556 11.8459 35.0091 10.8243C34.3616 6.30644 31.5223 4.08756 30.0443 3.56865C29.6024 3.4135 29.1428 3.75184 29.1428 4.22022Z" fill="#F8C616"/>
<path d="M40.2857 23.0417C39.9384 23.0417 39.611 22.8287 39.483 22.4838C39.2244 21.792 38.5297 21.327 37.7536 21.327C36.9776 21.327 36.2829 21.792 36.0242 22.4838C35.8593 22.9275 35.3655 23.1526 34.9218 22.9872C34.4781 22.8219 34.253 22.328 34.4187 21.8844C34.9252 20.5254 36.2652 19.6127 37.7535 19.6127C39.2418 19.6127 40.5819 20.5255 41.0883 21.8844C41.254 22.3281 41.0289 22.8219 40.5852 22.9872C40.4866 23.024 40.3854 23.0417 40.2857 23.0417Z" fill="#D0A50A"/>
<path d="M26.125 13H13.875C13.3918 13 13 12.5522 13 12C13 11.4478 13.3918 11 13.875 11H26.125C26.6082 11 27 11.4478 27 12C27 12.5522 26.6082 13 26.125 13Z" fill="#D0A50A"/>
<path d="M41.3068 35.5291C39.4023 36.3148 37.3223 36.7554 35.1428 36.7554H33.2815C33.3248 34.4558 31.4755 32.4698 29.072 32.4698C26.7442 32.4698 24.8572 34.3568 24.8572 36.6846V36.7555H22.2857C13.3285 36.7555 6 29.427 6 20.4698C6 16.3434 7.56825 12.5741 10.1218 9.69629C4.19925 12.1394 0 17.9778 0 24.7553C0 33.9934 4.71319 41.464 6.32456 43.7483C6.64603 44.2038 7.16522 44.4697 7.72266 44.4697H11.1428C12.0895 44.4697 12.8572 43.7021 12.8572 42.7553V40.668C13.9643 40.9078 15.1096 41.041 16.2857 41.041H24.8572V42.7553C24.8572 43.702 25.6247 44.4697 26.5715 44.4697H30.3284C31.1367 44.4697 31.8353 43.9049 32.0047 43.1146L32.5265 40.6799C35.9812 39.9379 39.0355 38.0888 41.3068 35.5291Z" fill="#F8C616"/>
<path fill-rule="evenodd" clip-rule="evenodd" d="M19.0004 32C18.4481 32 18 31.5523 18 31V19C18 18.4477 18.4477 18 19 18H20.0007V31C20.0007 31.5523 19.5527 32 19.0004 32Z" fill="white"/>
<path fill-rule="evenodd" clip-rule="evenodd" d="M23.3902 20H20V18H23.3902C24.7039 18 25.952 18.574 26.8069 19.5714C28.2513 21.2566 28.2513 22.7434 26.8069 24.4286C25.952 25.426 24.7039 26 23.3902 26H20V24H23.3902C24.12 24 24.8134 23.6811 25.2884 23.127C25.7633 22.5729 25.7923 21.461 25.2884 20.873C24.8134 20.3189 24.12 20 23.3902 20Z" fill="white"/>
<path d="M16 29.0004C16 28.4479 16.4477 28 17 28H24C24.5523 28 25 28.4479 25 29.0004C25 29.5529 24.5523 30.0007 24 30.0007H17C16.4477 30.0007 16 29.5529 16 29.0004Z" fill="white"/>
<path fill-rule="evenodd" clip-rule="evenodd" d="M20 6C17.2386 6 15 8.23858 15 11C15 11.7111 15.1484 12.3875 15.416 13H24.584C24.8516 12.3875 25 11.7111 25 11C25 8.23858 22.7614 6 20 6Z" fill="#C3C3C3"/>
<path d="M20 8.25C18.4812 8.25 17.25 9.48122 17.25 11C17.25 11.788 17.5814 12.4986 18.1125 13H21.8875C22.4186 12.4986 22.75 11.788 22.75 11C22.75 9.48122 21.5188 8.25 20 8.25Z" fill="#DDDDDD"/>
</svg>

<svg width="232" height="48" fill="none" xmlns="http://www.w3.org/2000/svg"><path d="M73.071 23.515c1.006.098 1.828.503 2.466 1.216.654.697.981 1.62.981 2.771 0 1.459-.479 2.61-1.436 3.452-.957.843-2.266 1.264-3.925 1.264H64V15.202h6.893c1.66 0 2.968.397 3.926 1.19.973.779 1.46 1.856 1.46 3.234 0 1.086-.287 1.96-.862 2.625-.574.649-1.356 1.07-2.346 1.264zm-3.04-5.47h-2.154v4.133h2.155c.734 0 1.308-.178 1.723-.534.43-.373.646-.884.646-1.532s-.207-1.15-.622-1.507c-.415-.373-.997-.56-1.747-.56zm.264 11.183c.718 0 1.284-.194 1.7-.583.414-.405.622-.956.622-1.653 0-.632-.216-1.135-.647-1.508-.415-.389-.973-.583-1.675-.583h-2.418v4.327h2.418zm13.834 3.355c-1.883 0-3.383-.567-4.5-1.702-1.117-1.15-1.675-2.658-1.675-4.521 0-1.864.558-3.363 1.675-4.498 1.117-1.134 2.617-1.701 4.5-1.701 1.707 0 3.096.43 4.165 1.288 1.069.86 1.675 2.026 1.819 3.5H86.45c-.272-1.101-1.037-1.652-2.298-1.652-.798 0-1.42.267-1.867.802-.447.535-.67 1.288-.67 2.26 0 .973.223 1.727.67 2.261.447.535 1.069.803 1.867.803 1.26 0 2.026-.519 2.298-1.556h3.662c-.144 1.442-.75 2.593-1.82 3.452-1.068.842-2.457 1.264-4.164 1.264zm19.824-6.831c0 .486-.032 1.029-.096 1.629h-8.521c.032.761.287 1.353.766 1.774.478.422 1.125.632 1.938.632 1.117 0 1.835-.364 2.155-1.094h3.59c-.176 1.151-.798 2.09-1.867 2.82-1.053.713-2.346 1.07-3.878 1.07-1.962 0-3.51-.551-4.643-1.653-1.133-1.102-1.7-2.626-1.7-4.57 0-1.913.567-3.42 1.7-4.522 1.133-1.118 2.64-1.677 4.524-1.677 1.787 0 3.239.518 4.356 1.555 1.117 1.038 1.676 2.383 1.676 4.036zm-8.617-.68h5.002c-.016-.779-.231-1.378-.646-1.8-.415-.421-1.013-.632-1.795-.632s-1.404.227-1.867.681c-.447.438-.678 1.021-.694 1.75zm10.711 7.146V20.501h5.482l2.704 7.487 2.729-7.487h5.409v11.717h-3.494v-8.605l-3.256 8.605h-2.752l-3.327-8.605v8.605h-3.495zm32.667-8.605l6.654 8.605h-4.596l-5.577-7.803v7.803h-3.877V15.202h3.877v7.074h.431c.527 0 .965-.308 1.316-.924l2.466-3.938c.526-.86 1.053-1.459 1.58-1.8.526-.356 1.172-.534 1.938-.534h1.604v3.452h-.79c-.542 0-1.085.43-1.628 1.288l-1.795 2.918a1.627 1.627 0 01-.622.656 1.666 1.666 0 01-.79.219h-.191zm15.775-3.428c1.58 0 2.856.567 3.83 1.702.989 1.134 1.484 2.625 1.484 4.473 0 1.83-.503 3.322-1.508 4.473-1.006 1.134-2.306 1.701-3.902 1.701-.829 0-1.571-.186-2.226-.559-.654-.373-1.133-.843-1.436-1.41v6.515h-3.662V20.501h3.662v1.677c.303-.583.798-1.061 1.484-1.434a4.684 4.684 0 012.274-.559zm-1.149 9.262c.798 0 1.452-.284 1.963-.85.51-.584.766-1.33.766-2.237 0-.908-.256-1.645-.766-2.212-.511-.568-1.165-.851-1.963-.851-.83 0-1.5.283-2.01.85-.511.568-.766 1.305-.766 2.213 0 .923.255 1.669.766 2.236.526.567 1.196.85 2.01.85zm20.081-3.695c0 .486-.032 1.029-.096 1.629h-8.521c.032.761.287 1.353.766 1.774.479.422 1.125.632 1.939.632 1.117 0 1.835-.364 2.154-1.094h3.59c-.175 1.151-.798 2.09-1.867 2.82-1.053.713-2.345 1.07-3.877 1.07-1.963 0-3.511-.551-4.644-1.653-1.133-1.102-1.699-2.626-1.699-4.57 0-1.913.566-3.42 1.699-4.522 1.133-1.118 2.641-1.677 4.524-1.677 1.787 0 3.239.518 4.356 1.555 1.117 1.038 1.676 2.383 1.676 4.036zm-8.617-.68h5.002c-.016-.779-.231-1.378-.646-1.8-.415-.421-1.013-.632-1.795-.632s-1.404.227-1.867.681c-.447.438-.678 1.021-.694 1.75zm22.184 3.864h1.316v6.2h-3.566v-2.918h-6.965v2.917h-3.662v-6.199h1.268c.718-.356 1.077-1.15 1.077-2.382v-6.053h10.532v8.435zm-6.965-5.688v3.209c0 1.102-.272 2.058-.814 2.868h4.141v-6.077h-3.327zm18.373 2.091l-4.212 5.98v.9h-3.662V20.5h3.662v7.05l4.212-6.005V20.5h3.639v11.717h-3.639v-6.88zm15.951-4.838v3.233h-3.231v8.484h-3.662v-8.484h-3.208v-3.233h10.101zm2.167 0h3.662v3.67h2.394c1.531 0 2.688.39 3.47 1.168.798.761 1.197 1.718 1.197 2.868 0 1.054-.415 1.985-1.245 2.796-.814.81-1.954 1.215-3.422 1.215h-6.056V20.501zm11.824 11.717V20.501H232v11.717h-3.662zm-8.162-5.567v3.16h1.723c.511 0 .902-.145 1.173-.437.287-.292.431-.673.431-1.142 0-.47-.144-.851-.431-1.143-.271-.292-.654-.438-1.149-.438h-1.747z" fill="#151515"/><path d="M42 30.756h4.286c.947 0 1.714-.768 1.714-1.715v-5.143c0-.946-.767-1.714-1.714-1.714H42v8.572z" fill="#F8C616"/><path d="M29.143 41.041H16.286C7.329 41.041 0 33.713 0 24.755 0 15.798 7.329 8.47 16.286 8.47h12.857c8.957 0 16.285 7.328 16.285 16.285 0 8.958-7.328 16.286-16.285 16.286z" fill="#FFDD2D"/><path d="M29.143 4.22v6.821c0 .947.767 1.715 1.714 1.715h2.45c1.031 0 1.849-.91 1.702-1.932-.647-4.518-3.487-6.736-4.965-7.255a.683.683 0 00-.901.651z" fill="#F8C616"/><path d="M40.286 23.042a.856.856 0 01-.803-.558c-.259-.692-.953-1.157-1.73-1.157-.775 0-1.47.465-1.729 1.157a.856.856 0 11-1.605-.6c.506-1.359 1.846-2.271 3.335-2.271 1.488 0 2.828.913 3.334 2.271a.857.857 0 01-.802 1.158zM26.125 13h-12.25c-.483 0-.875-.448-.875-1s.392-1 .875-1h12.25c.483 0 .875.448.875 1s-.392 1-.875 1z" fill="#D0A50A"/><path d="M41.307 35.53a16.125 16.125 0 01-6.164 1.225h-1.861c.043-2.3-1.806-4.285-4.21-4.285a4.215 4.215 0 00-4.215 4.215v.07h-2.571C13.328 36.755 6 29.427 6 20.47c0-4.127 1.568-7.896 4.122-10.774C4.199 12.14 0 17.978 0 24.756c0 9.237 4.713 16.708 6.325 18.992.321.456.84.722 1.398.722h3.42c.946 0 1.714-.768 1.714-1.715v-2.087a16.17 16.17 0 003.429.373h8.571v1.714c0 .947.768 1.715 1.715 1.715h3.756c.809 0 1.507-.565 1.677-1.355l.521-2.435a16.344 16.344 0 008.78-5.15z" fill="#F8C616"/><path fill-rule="evenodd" clip-rule="evenodd" d="M19 32a1 1 0 01-1-1V19a1 1 0 011-1h1v13a1 1 0 01-1 1zm4.39-12H20v-2h3.39a4.5 4.5 0 013.417 1.571c1.444 1.686 1.444 3.172 0 4.858A4.5 4.5 0 0123.39 26H20v-2h3.39a2.5 2.5 0 001.898-.873c.475-.554.504-1.666 0-2.254A2.5 2.5 0 0023.39 20z" fill="#fff"/><path d="M16 29a1 1 0 011-1h7a1 1 0 010 2h-7a1 1 0 01-1-1z" fill="#fff"/><path fill-rule="evenodd" clip-rule="evenodd" d="M20 6a5 5 0 00-4.584 7h9.168A5 5 0 0020 6z" fill="#C3C3C3"/><path d="M20 8.25A2.75 2.75 0 0018.113 13h3.774A2.75 2.75 0 0020 8.25z" fill="#DDD"/></svg>
